public/avatar/item2/57.svg

<svg xmlns:xlink="http://www.w3.org/1999/xlink" height="99.2" width="82.2" xmlns="http://www.w3.org/2000/svg"><use height="15.05" transform="translate(11.4 63.75)" width="37.85" xlink:href="#a"/><defs><g id="a" fill-rule="evenodd"><path d="M.95 24.4h.1l.5-.05.4-.05.65-.45.85-.4.95-.3.6-.75q.2-.15.9-.35l.5-.05.55.05 1.1-.05q1.3-.25 2.4-.95l1.45-.95.5-.4.95-1.55.65-.85q.55-.3 1.2-.3 1.1 0 2 1 .6.5.3 1.15l-.65.85q-.35.45.3.8l.9.7q.4.35-.1.95l-.6 1-.7 1.1q-.6.5-2 1-1.4.45-1.05 1.3l.6.7.75 1.05q.75 1.35.5 2.25l-.3.35-1.8.2-2.5-.05-.65.05-.5-.1-.45-1.1q-.1.05-.1.6v.7q-.15.8-1.05.45l-1.15-.65-.65-.25-.6-.35-.7-.3q-.65-.3-1-.9l-.25-.45L3.4 29l-2.4.45-1.45-.15-1.05-.55-1.2-.65h-.5l-.8.25-1.7.7-1.9.4-.85-.15-1.1-.25-1.2-.2q-1.4-.4-2.3-1.3l-.85-.85q-.5-.6-.85-.7l-2.55-.3q-1.3-.2-1.75-1.15l-.3-.45-.2-.8q-.1-.45.2-.75l.85-.65q.4-.4.3-.95l-.25-1.05q0-.65.2-.95l.6-.75.95-.4.55-.05.4.1.35-.05q.25.05.75.35l1 .7 1.4 1.6q.3.4 1.2.5l1.2.1 1.2-.1 1.1.15q1.2.35 2.05.9l2.05 1.3 1.95.8 1.85.25.6.05" fill="#020001" transform="translate(19.6 -17)"/><path d="m7.25 22.85 4.2-2 1.6-1.05.7-.7.3-.9q.2-.55.65-.4l.7.55q.2.25-.3 1.9-.25.6.3.95l.8.45.3.85-.2.95-.45.65-.95.3q-1.15.55-1.75 1.25l-1.2 1.2-.65.15-.95.1-2.6-.1-1.35.05-.95.2-1 .9-.45.1-.95.35-2.3.25-1.85-.9q-1.1-.65-2-.65l-2.55.6-3.9.25q-2-.3-2.85-1.1-1.2-1.2-2.45-1.6l-1.35-.3-1.05-.05-1-.7-.35-.65-.2-.5.8-1.05.6-1.1-.25-1.1q0-.55.5-.9 1.2-1.05 2.05-.45l.9.85.8.9 1.15.9q.45.4.9.45l.75-.05.85-.05 1.65-.05q.2.05 1.3.6l4 2 1.25.45 1.4.25 3.2-.1 1.6-.35q.2 0 1.05-.4l.9-.6.6-.6h.05" fill="#930323" transform="translate(19.6 -17)"/><path d="m3.45 25.15 1.4-.4.9-.4.25.45.2.35-.35.55-.55.7-.7.75-1.4.7-2.15.25L-2.8 27l-1.85-.05-2.55.25-3.85-.2q-.85-.25-1.35-.7l-1.4-.95q-1.15-.85-2.05-.9l-1.1-.05-.4-.6-.5-.75.35-.9.7-1.05q.35-.45.15-.85l-.25-.35.1-.4.65-.85q.15-.2.35-.15l.4.3 2.15 2.25.85.6.7.4v.05l.7-.05.9-.1.9-.15.95.2q.7.3 2.1 1.1l2.2 1.2 1.65.6 1.95.25 2.15.1 1.65-.1" fill="#e5052b" transform="translate(19.6 -17)"/><path d="M7.9 22.9q.65-.45 2.85-1.45l2.25-1.2 1.05-1.05.4-.9q.15-.65.4-.65l1.25.45q.7.35.65.85l-.4.7-.45.55-.2.35.4.4 1 .8.25.3-.4.5-.3.45-.2.4-.35.15-.55.05-1 .35-1.55 1.3-1.4 1.1-.65.15-.85.05-1.65-.25-2.25-.55-.4-.1-.1-.5-.05-.4-.2-.45.15.15 1.3-.9 1-.65" fill="#e5052b" transform="translate(19.6 -17)"/><path d="m8.1 27.35.3.4.3.8-.2.85-.05.5.05.4-.3.8q-.4.15-.85-.3l-.85-.55-1.8-.85q-.9-.55-.55-1.6l.25-.8.2-.45.2-.2.3-.05.5.05 1.1.2.95.45.45.35" fill="#930323" transform="translate(19.6 -17)"/><path d="m11.1 30.85-.8-.25-.45-.8v.15l-.1-.5-.45-.5q-.5-.5-1.25-.65-1.8-.45-2-1.85-.1-.45.25-.8.2-.3 1.05-.5l2.6.25 1.4.75 1.4.85 1 .9.65.85.35.85.25.85h-.75l-1.1.05-2.05.35" fill="#930323" transform="translate(19.6 -17)"/><path d="M5.1 26.75q1.25 0 2.5.8l.4.35q.35.4.25 1.35l-.2.75.05.7q-.15.2-.7-.2L5 29l-.55-.6.65-1.65H5l.1-.1v.1" fill="#e5052b" transform="translate(19.6 -17)"/><path d="m10.7 30.6-.7-1.25-.45-.6q-.2-.25-.8-.45l-.9-.3-.9-.55q-.55-.4-.35-.85.1-.35.9-.75l1.9-.15.1-.05.4.1q.95.15 2.4 1.1 1.2.9 1.75 2.2l.35 1.1q-.55-.15-1.4 0l-2.3.45" fill="#e5052b" transform="translate(19.6 -17)"/><path d="m8.6 23.95.25 1 .3.95q.15.8-.15.95l-.45.15-.5.1-1.15.25-1.05.35h-1.1L4 27.1l-.7-1.05-.25-.55-.1-.5H3q0-.75.2-.95.2-.2.9-.3.7-.05 1.45-1.05.3-.35.8-.35h.5l.5.2.85.55q.4.35.4.85" fill="#930323" transform="translate(19.6 -17)"/><path d="M3.95 24.25q.35-.15.65-.35l1.55-1q.4-.3 1 .15l.6.35.4.3-.1-.05.05.35.05.45.3.8.2 1-.05.45-.4.05-1.65.35-1.5.15-.5-.45-.6-.8q-.6-.8-.45-1.4l.45-.35" fill="#e5052b" transform="translate(19.6 -17)"/><path d="m5.65 27.6.35-.05q.2 0 .3.15l.15.4.35.4q.4.3.6.75l.25.65q-.25-.6-1.05-1.05l-.75-.45-.2-.3v-.5m6.25.25q-1-1.75-2.95-1.8L9.4 26h.7l1.35.5q1.15.7 1.45 1.9.25.7-.3 1.2-1 .65-1.1.4l.3-.55.2-.55q.15-.5-.1-1.05M6.35 24.5l-.8.95-.65 1.3-.15.55v-.1l.05-.3.75-2.75.45-1.4 1.05.1.6.35-.5.45-.8.85m2.2.85.1.45q-.85.2-1.95.7-.5.15-.85.45l-.6.55.05-.1-.05-.05 1-1.3L7.4 24.9l.45-.3q.25-.1.4.2l.3.55m-25.4-5.2h.05q1.35.5 1.95 1.15l.35.55.55.6.85.7.15.15-.55-.25-1.25-.55-2.25-1.3.15-1.05M.25 26.8l-.7-.05-1.5-.3L-3.2 26l-.55-.2.5.15 1.4.25 2.65.05 1.9-.2.6-.15.35.45v.1l-.55.2-1.2.2-1.65-.05m-11.75-3.45-.4-.35-.1-.05h.1l.35.1.8.5 2.15 1.15 2.5.25 1.5-.15h.4l.4.05-.8.15-2.6 1-1.15.15-1.25-.95-1.9-1.85m21.4.05-.5.2 3.4-1.95 1.55-1.05.55-.6.15-.1q.4-.15.4.2l-.05.3v.3l.5.9-.95.05-1.95.45q-.7.2-2.4.95l-.7.35m2.15.75 1.6-.5 1.85-.8-.25.15-2.3 1.35-2.3 1.3-1-.2-.8-.2-.2-.35v-.4l3.4-.35" fill="#930323" transform="translate(19.6 -17)"/><path d="m10.2 27.65.65 1.4.1.35-1.1-1.2-1-.55-.6-.65H8.2l.5-.15.4-.35q.75.5 1.1 1.15" fill="#930323" transform="translate(19.6 -17)"/><path d="m8.4 22.8.2-.05h-.1l.25-.2 1.85-.75q.8-.2 1.5-.7l-1.1 1-1.2.85q-.6.45-.9.4l-.5-.55m-19.35-.2 2.1-.05.6.2 2.5 1.3-1.6.1-.85-.05-.7-.3q-.75-.6-1.2-.8l-1.25-.45.4.05m-4.35.9 1.05.8.6.45-.5-.3q-.55-.4-1.2-.55-1.4-.3-1.5-.6l.05-.9q.25 0 .7.35l.8.75m26.2.25.1-.1q.15-.2.95-.65l1.25-.5 2.25-.35.95-.05q.15.35-.3.5l-.6.15h-.4l-.65.2-3.55.8M4.45 25.9l-.5-1.35.05-.05.4-.2.45-.1q.2 0 .2.35 0 1.6-.6 1.35m2.95-1.75.3.35-1.3 1.05-.6.65-.45.35.05-.3v.25q.05-.4.9-1.25l1.1-1.1m-.55 3.5q.5-.05.95.65l.3.65-.5.05-.85-.85-.2-.5.35-.05-.05.05m3.45-.8q.9.8 1.05 1.35l.05.9-.45.9.15-.6-.05-.75-.45-.9-.65-.7-.4-.35.75.25v-.1m-19.25-.35.85.15.55.1-1.05.1-1.05-.1-1.35-.3-1.05-.45-.45-.35-.45-.2.6.05.5-.15q.45-.05 1.35.4.55.2 1.55.75M1.5 27.85.3 27.6l-1.2-.45.1.05 1.75.15 2.55-.25-.95.5-1.05.25" fill="#f489a0" transform="translate(19.6 -17)"/></g></defs></svg>

<?xml version="1.0" encoding="UTF-8" standalone="no"?>
<svg xmlns:xlink="http://www.w3.org/1999/xlink" height="99.2px" width="82.2px" xmlns="http://www.w3.org/2000/svg">
  <g transform="matrix(1.0, 0.0, 0.0, 1.0, 31.0, 46.75)">
    <use height="15.05" transform="matrix(1.0, 0.0, 0.0, 1.0, -19.6, 17.0)" width="37.85" xlink:href="#shape0"/>
  </g>
  <defs>
    <g id="shape0" transform="matrix(1.0, 0.0, 0.0, 1.0, 19.6, -17.0)">
      <path d="M0.95 24.4 L1.05 24.4 1.55 24.35 1.95 24.3 2.6 23.85 3.45 23.45 4.4 23.15 5.0 22.4 Q5.2 22.25 5.9 22.05 L6.4 22.0 6.95 22.05 8.05 22.0 Q9.35 21.75 10.45 21.05 L11.9 20.1 12.4 19.7 13.35 18.15 14.0 17.3 Q14.55 17.0 15.2 17.0 16.3 17.0 17.2 18.0 17.8 18.5 17.5 19.15 L16.85 20.0 Q16.5 20.45 17.15 20.8 L18.05 21.5 Q18.45 21.85 17.95 22.45 L17.35 23.45 16.65 24.55 Q16.05 25.05 14.65 25.55 13.25 26.0 13.6 26.85 L14.2 27.55 14.95 28.6 Q15.7 29.95 15.45 30.85 L15.15 31.2 13.35 31.4 10.85 31.35 10.2 31.4 9.7 31.3 9.25 30.2 Q9.15 30.25 9.15 30.8 L9.15 31.5 Q9.0 32.3 8.1 31.95 L6.95 31.3 6.3 31.05 5.7 30.7 5.0 30.4 Q4.35 30.1 4.0 29.5 L3.75 29.05 3.4 29.0 1.0 29.45 -0.45 29.3 -1.5 28.75 -2.7 28.1 -3.2 28.1 -4.0 28.35 -5.7 29.05 -7.6 29.45 -8.45 29.3 -9.55 29.05 -10.75 28.85 Q-12.15 28.45 -13.05 27.55 L-13.9 26.7 Q-14.4 26.1 -14.75 26.0 L-17.3 25.7 Q-18.6 25.5 -19.05 24.55 L-19.35 24.1 -19.55 23.3 Q-19.65 22.85 -19.35 22.55 L-18.5 21.9 Q-18.1 21.5 -18.2 20.95 L-18.45 19.9 Q-18.45 19.25 -18.25 18.95 L-17.65 18.2 -16.7 17.8 -16.15 17.75 -15.75 17.85 -15.4 17.8 Q-15.15 17.85 -14.65 18.15 L-13.65 18.85 -12.25 20.45 Q-11.95 20.85 -11.05 20.95 L-9.85 21.05 -8.65 20.95 -7.55 21.1 Q-6.35 21.45 -5.5 22.0 L-3.45 23.3 -1.5 24.1 0.35 24.35 0.95 24.4" fill="#020001" fill-rule="evenodd" stroke="none"/>
      <path d="M7.25 22.85 L11.45 20.85 13.05 19.8 13.75 19.1 14.05 18.2 Q14.25 17.65 14.7 17.8 L15.4 18.35 Q15.6 18.6 15.1 20.25 14.85 20.85 15.4 21.2 L16.2 21.65 16.5 22.5 16.3 23.45 15.85 24.1 14.9 24.4 Q13.75 24.95 13.15 25.65 L11.95 26.85 11.3 27.0 10.35 27.1 7.75 27.0 6.4 27.05 5.45 27.25 4.45 28.15 4.0 28.25 3.05 28.6 0.75 28.85 -1.1 27.95 Q-2.2 27.3 -3.1 27.3 L-5.65 27.9 -9.55 28.15 Q-11.55 27.85 -12.4 27.05 -13.6 25.85 -14.85 25.45 L-16.2 25.15 -17.25 25.1 -18.25 24.4 -18.6 23.75 -18.8 23.25 -18.0 22.2 -17.4 21.1 -17.65 20.0 Q-17.65 19.45 -17.15 19.1 -15.95 18.05 -15.1 18.65 L-14.2 19.5 -13.4 20.4 -12.25 21.3 Q-11.8 21.7 -11.35 21.75 L-10.6 21.7 -9.75 21.65 -8.1 21.6 Q-7.9 21.65 -6.8 22.2 L-2.8 24.2 -1.55 24.65 -0.15 24.9 3.05 24.8 4.65 24.45 Q4.85 24.45 5.7 24.05 L6.6 23.45 7.2 22.85 7.25 22.85" fill="#930323" fill-rule="evenodd" stroke="none"/>
      <path d="M3.45 25.15 L4.85 24.75 5.75 24.35 6.0 24.8 6.2 25.15 5.85 25.7 5.3 26.4 4.6 27.15 3.2 27.85 1.05 28.1 -2.8 27.0 -4.65 26.95 -7.2 27.2 -11.05 27.0 Q-11.9 26.75 -12.4 26.3 L-13.8 25.35 Q-14.95 24.5 -15.85 24.45 L-16.95 24.4 -17.35 23.8 -17.85 23.05 -17.5 22.15 -16.8 21.1 Q-16.45 20.65 -16.65 20.25 L-16.9 19.9 -16.8 19.5 -16.15 18.65 Q-16.0 18.45 -15.8 18.5 L-15.4 18.8 -13.25 21.05 -12.4 21.65 -11.7 22.05 -11.7 22.1 -11.0 22.05 -10.1 21.95 -9.2 21.8 -8.25 22.0 Q-7.55 22.3 -6.15 23.1 L-3.95 24.3 -2.3 24.9 -0.35 25.15 1.8 25.25 3.45 25.15" fill="#e5052b" fill-rule="evenodd" stroke="none"/>
      <path d="M7.9 22.9 Q8.55 22.45 10.75 21.45 L13.0 20.25 14.05 19.2 14.45 18.3 Q14.6 17.65 14.85 17.65 L16.1 18.1 Q16.8 18.45 16.75 18.95 L16.35 19.65 15.9 20.2 15.7 20.55 16.1 20.95 17.1 21.75 17.35 22.05 16.95 22.55 16.65 23.0 16.45 23.4 16.1 23.55 15.55 23.6 14.55 23.95 13.0 25.25 11.6 26.35 10.95 26.5 10.1 26.55 8.45 26.3 6.2 25.75 5.8 25.65 5.7 25.15 5.65 24.75 5.45 24.3 5.6 24.45 6.9 23.55 7.9 22.9" fill="#e5052b" fill-rule="evenodd" stroke="none"/>
      <path d="M8.1 27.35 L8.4 27.75 8.7 28.55 8.5 29.4 8.45 29.9 8.5 30.3 8.2 31.1 Q7.8 31.25 7.35 30.8 L6.5 30.25 4.7 29.4 Q3.8 28.85 4.15 27.8 L4.4 27.0 4.6 26.55 4.8 26.35 5.1 26.3 5.6 26.35 6.7 26.55 7.65 27.0 8.1 27.35" fill="#930323" fill-rule="evenodd" stroke="none"/>
      <path d="M11.1 30.85 L10.3 30.6 9.85 29.8 9.85 29.95 9.75 29.45 9.3 28.95 Q8.8 28.45 8.05 28.3 6.25 27.85 6.05 26.45 5.95 26.0 6.3 25.65 6.5 25.35 7.35 25.15 L9.95 25.4 11.35 26.15 12.75 27.0 13.75 27.9 14.4 28.75 14.75 29.6 15.0 30.45 14.25 30.45 13.15 30.5 11.1 30.85" fill="#930323" fill-rule="evenodd" stroke="none"/>
      <path d="M5.1 26.75 Q6.35 26.75 7.6 27.55 L8.0 27.9 Q8.35 28.3 8.25 29.25 L8.05 30.0 8.1 30.7 Q7.95 30.9 7.4 30.5 L5.0 29.0 4.45 28.4 5.1 26.75 5.0 26.75 5.1 26.65 5.1 26.75" fill="#e5052b" fill-rule="evenodd" stroke="none"/>
      <path d="M10.7 30.6 L10.0 29.35 9.55 28.75 Q9.35 28.5 8.75 28.3 L7.85 28.0 6.95 27.45 Q6.4 27.05 6.6 26.6 6.7 26.25 7.5 25.85 L9.4 25.7 9.5 25.65 9.9 25.75 Q10.85 25.9 12.3 26.85 13.5 27.75 14.05 29.05 L14.4 30.15 Q13.85 30.0 13.0 30.15 L10.7 30.6" fill="#e5052b" fill-rule="evenodd" stroke="none"/>
      <path d="M8.6 23.95 L8.85 24.95 9.15 25.9 Q9.3 26.7 9.0 26.85 L8.55 27.0 8.05 27.1 6.9 27.35 5.85 27.7 4.75 27.7 4.0 27.1 3.3 26.05 3.05 25.5 2.95 25.0 3.0 25.0 Q3.0 24.25 3.2 24.05 3.4 23.85 4.1 23.75 4.8 23.7 5.55 22.7 5.85 22.35 6.35 22.35 L6.85 22.35 7.35 22.55 8.2 23.1 Q8.6 23.45 8.6 23.95" fill="#930323" fill-rule="evenodd" stroke="none"/>
      <path d="M3.95 24.25 Q4.3 24.1 4.6 23.9 L6.15 22.9 Q6.55 22.6 7.15 23.05 L7.75 23.4 8.15 23.7 8.05 23.65 8.1 24.0 8.15 24.45 8.45 25.25 8.65 26.25 8.6 26.7 8.2 26.75 6.55 27.1 5.05 27.25 4.55 26.8 3.95 26.0 Q3.35 25.2 3.5 24.6 L3.95 24.25" fill="#e5052b" fill-rule="evenodd" stroke="none"/>
      <path d="M5.65 27.6 L6.0 27.55 Q6.2 27.55 6.3 27.7 L6.45 28.1 6.8 28.5 Q7.2 28.8 7.4 29.25 L7.65 29.9 Q7.4 29.3 6.6 28.85 L5.85 28.4 5.65 28.1 5.65 27.6" fill="#930323" fill-rule="evenodd" stroke="none"/>
      <path d="M11.9 27.85 Q10.9 26.1 8.95 26.05 L9.4 26.0 10.1 26.0 11.45 26.5 Q12.6 27.2 12.9 28.4 13.15 29.1 12.6 29.6 11.6 30.25 11.5 30.0 L11.8 29.45 12.0 28.9 Q12.15 28.4 11.9 27.85" fill="#930323" fill-rule="evenodd" stroke="none"/>
      <path d="M6.35 24.5 L5.55 25.45 4.9 26.75 4.75 27.3 4.75 27.2 4.8 26.9 5.55 24.15 6.0 22.75 7.05 22.85 7.65 23.2 7.15 23.65 6.35 24.5" fill="#930323" fill-rule="evenodd" stroke="none"/>
      <path d="M8.55 25.35 L8.65 25.8 Q7.8 26.0 6.7 26.5 6.2 26.65 5.85 26.95 L5.25 27.5 5.3 27.4 5.25 27.35 6.25 26.05 7.4 24.9 7.85 24.6 Q8.1 24.5 8.25 24.8 L8.55 25.35" fill="#930323" fill-rule="evenodd" stroke="none"/>
      <path d="M-16.85 20.15 L-16.8 20.15 Q-15.45 20.65 -14.85 21.3 L-14.5 21.85 -13.95 22.45 -13.1 23.15 -12.95 23.3 -13.5 23.05 -14.75 22.5 -17.0 21.2 -16.85 20.15" fill="#930323" fill-rule="evenodd" stroke="none"/>
      <path d="M0.25 26.8 L-0.45 26.75 -1.95 26.45 -3.2 26.0 -3.75 25.8 -3.25 25.95 -1.85 26.2 0.8 26.25 2.7 26.05 3.3 25.9 3.65 26.35 3.65 26.45 3.1 26.65 1.9 26.85 0.25 26.8" fill="#930323" fill-rule="evenodd" stroke="none"/>
      <path d="M-11.5 23.35 L-11.9 23.0 -12.0 22.95 -11.9 22.95 -11.55 23.05 -10.75 23.55 -8.6 24.7 -6.1 24.95 -4.6 24.8 -4.2 24.8 -3.8 24.85 -4.6 25.0 -7.2 26.0 -8.35 26.15 -9.6 25.2 -11.5 23.35" fill="#930323" fill-rule="evenodd" stroke="none"/>
      <path d="M9.9 23.4 L9.4 23.6 12.8 21.65 14.35 20.6 14.9 20.0 15.05 19.9 Q15.45 19.75 15.45 20.1 L15.4 20.4 15.4 20.7 15.9 21.6 14.95 21.65 13.0 22.1 Q12.3 22.3 10.6 23.05 L9.9 23.4" fill="#930323" fill-rule="evenodd" stroke="none"/>
      <path d="M12.05 24.15 L13.65 23.65 15.5 22.85 15.25 23.0 12.95 24.35 10.65 25.65 9.65 25.45 8.85 25.25 8.65 24.9 8.65 24.5 12.05 24.15" fill="#930323" fill-rule="evenodd" stroke="none"/>
      <path d="M10.2 27.65 L10.85 29.05 10.95 29.4 9.85 28.2 8.85 27.65 8.25 27.0 8.2 27.0 8.7 26.85 9.1 26.5 Q9.85 27.0 10.2 27.65" fill="#930323" fill-rule="evenodd" stroke="none"/>
      <path d="M8.4 22.8 L8.6 22.75 8.5 22.75 8.75 22.55 10.6 21.8 Q11.4 21.6 12.1 21.1 L11.0 22.1 9.8 22.95 Q9.2 23.4 8.9 23.35 L8.4 22.8" fill="#f489a0" fill-rule="evenodd" stroke="none"/>
      <path d="M-10.95 22.6 L-8.85 22.55 -8.25 22.75 -5.75 24.05 -7.35 24.15 -8.2 24.1 -8.9 23.8 Q-9.65 23.2 -10.1 23.0 L-11.35 22.55 -10.95 22.6" fill="#f489a0" fill-rule="evenodd" stroke="none"/>
      <path d="M-15.3 23.5 L-14.25 24.3 -13.65 24.75 -14.15 24.45 Q-14.7 24.05 -15.35 23.9 -16.75 23.6 -16.85 23.3 L-16.8 22.4 Q-16.55 22.4 -16.1 22.75 L-15.3 23.5" fill="#f489a0" fill-rule="evenodd" stroke="none"/>
      <path d="M10.9 23.75 L11.0 23.65 Q11.15 23.45 11.95 23.0 L13.2 22.5 15.45 22.15 16.4 22.1 Q16.55 22.45 16.1 22.6 L15.5 22.75 15.1 22.75 14.45 22.95 10.9 23.75" fill="#f489a0" fill-rule="evenodd" stroke="none"/>
      <path d="M4.45 25.9 L3.95 24.55 4.0 24.5 4.4 24.3 4.85 24.2 Q5.05 24.2 5.05 24.55 5.05 26.15 4.45 25.9" fill="#f489a0" fill-rule="evenodd" stroke="none"/>
      <path d="M7.4 24.15 L7.7 24.5 6.4 25.55 5.8 26.2 5.35 26.55 5.4 26.25 5.4 26.5 Q5.45 26.1 6.3 25.25 L7.4 24.15" fill="#f489a0" fill-rule="evenodd" stroke="none"/>
      <path d="M6.85 27.65 Q7.35 27.6 7.8 28.3 L8.1 28.95 7.6 29.0 6.75 28.15 6.55 27.65 6.9 27.6 6.85 27.65" fill="#f489a0" fill-rule="evenodd" stroke="none"/>
      <path d="M10.3 26.85 Q11.2 27.65 11.35 28.2 L11.4 29.1 10.95 30.0 11.1 29.4 11.05 28.65 10.6 27.75 9.95 27.05 9.55 26.7 10.3 26.95 10.3 26.85" fill="#f489a0" fill-rule="evenodd" stroke="none"/>
      <path d="M-8.95 26.5 L-8.1 26.65 -7.55 26.75 -8.6 26.85 -9.65 26.75 -11.0 26.45 -12.05 26.0 -12.5 25.65 -12.95 25.45 -12.35 25.5 -11.85 25.35 Q-11.4 25.3 -10.5 25.75 -9.95 25.95 -8.95 26.5" fill="#f489a0" fill-rule="evenodd" stroke="none"/>
      <path d="M1.5 27.85 L0.3 27.6 -0.9 27.15 -0.8 27.2 0.95 27.35 3.5 27.1 2.55 27.6 1.5 27.85" fill="#f489a0" fill-rule="evenodd" stroke="none"/>
    </g>
  </defs>
</svg>
